X:15006
T:Oyster Girl, The
T:Kingsbury Jig
R:Jig
C:Trad.
O:England
Z:Paul Hardy's Session Tunebook 2022 (see www.paulhardy.net). Creative Commons cc by-nc-sa licenced.
N:Just A and B parts for usual 32 bar jig. Add C part for 48 bars.
M:6/8
L:1/8
Q:3/8=120
K:G
Bc|:"G"ded B2 G|"D"A2 F D3|"G"G2 G BGB|"D"d2 c A2 d|"G"ded Bdg|"D"f2 e "C"c2e|"G"d2 B "D7"cBA|"G"G3-G2 d:|
|:"G"Bcd Bcd|"C"e2 c e2c|"D7"ABc ABc|"G"d2 B d2 B|ded Bdg|"D"f2 e "C"c2 e|"G"d2 B "D7"cBA|"G"G3-G2 d:|
P:C
"G"ded B2d|g3 gfg|"D7"a2A A2B|c3 A2B|cdc A2c|f3 f2e|"G"e2d G2A|B3 B2c|
"G"ded B2d|g3gfg|"Am"a2b a2g|e3e3|"D7"fgf e2d|c'2a f2e|ded e2f|"G" gdB G2|]

